remix/Map/navigation-fill.svg

<svg viewBox="0 0 24 24" fill="currentColor" xmlns="http://www.w3.org/2000/svg"><path d="M2.89945 2.29983L21.7052 8.56842C21.9672 8.65574 22.1088 8.93891 22.0215 9.20088C21.975 9.3404 21.8694 9.45238 21.7328 9.507L13.0002 13.0001L8.57501 21.8504C8.45151 22.0974 8.15118 22.1975 7.90419 22.074C7.77883 22.0113 7.68553 21.8989 7.64703 21.7641L2.26058 2.91153C2.18472 2.64601 2.33846 2.36927 2.60398 2.29341C2.70087 2.26573 2.80386 2.26796 2.89945 2.29983Z"/></svg>

<svg viewBox="0 0 24 24" xmlns="http://www.w3.org/2000/svg"><path fill="none" d="M0 0h24v24H0Z"/><path d="M2.9 2.3l18.805 6.26v0c.26.08.4.36.31.63 -.05.14-.16.25-.29.3l-8.74 3.49 -4.43 8.85v0c-.13.24-.43.34-.68.22 -.13-.07-.22-.18-.26-.31L2.22 2.88v0c-.08-.27.07-.55.34-.62 .09-.03.2-.03.29 0Z"/></svg>
